libs/icons/src/svg/cart.svg

<svg width="16" height="16" viewBox="0 0 16 16" fill="none" xmlns="http://www.w3.org/2000/svg">
<g clip-path="url(#clip0_3_3341)">
<path fill-rule="evenodd" clip-rule="evenodd" d="M0.666667 0.666672C0.298477 0.666672 0 0.965149 0 1.33334C0 1.70153 0.298477 2.00001 0.666667 2.00001H2.08299L3.33918 11.4214C3.38334 11.7527 3.66586 12 4 12H13.3333C13.6511 12 13.9247 11.7757 13.9871 11.4641L15.3204 4.79742C15.3596 4.60157 15.3089 4.39847 15.1822 4.24401C15.0556 4.08955 14.8664 4 14.6667 4H3.69479L3.32749 1.24523C3.28332 0.914025 3.0008 0.666672 2.66667 0.666672H0.666667ZM4.58368 10.6667L3.87257 5.33334H13.8535L12.7868 10.6667H4.58368Z" fill="#202327"/>
<path d="M4 13.3333C3.26362 13.3333 2.66667 13.9303 2.66667 14.6667C2.66667 15.403 3.26362 16 4 16C4.73638 16 5.33333 15.403 5.33333 14.6667C5.33333 13.9303 4.73638 13.3333 4 13.3333Z" fill="#202327"/>
<path d="M13.3333 13.3333C12.597 13.3333 12 13.9303 12 14.6667C12 15.403 12.597 16 13.3333 16C14.0697 16 14.6667 15.403 14.6667 14.6667C14.6667 13.9303 14.0697 13.3333 13.3333 13.3333Z" fill="#202327"/>
</g>
<defs>
<clipPath id="clip0_3_3341">
<rect width="16" height="16" fill="white"/>
</clipPath>
</defs>
</svg>

<svg xmlns="http://www.w3.org/2000/svg" viewBox="0 0 16 16" class="sageicon"><path fill-rule="evenodd" d="M.667.667A.667.667 0 0 0 .667 2h1.416l1.256 9.421A.667.667 0 0 0 4 12h9.333a.667.667 0 0 0 .654-.536l1.333-6.667A.666.666 0 0 0 14.667 4H3.695l-.368-2.755a.667.667 0 0 0-.66-.578h-2Zm3.917 10-.711-5.334h9.98l-1.066 5.334H4.584Z"/><path d="M4 13.333A1.333 1.333 0 1 0 4 16a1.333 1.333 0 0 0 0-2.667ZM13.333 13.333a1.333 1.333 0 1 0 0 2.667 1.333 1.333 0 0 0 0-2.667Z"/></svg>
